src/pos-icons/alphabet-aurebesh.svg

<svg height="24" viewBox="0 0 24 24" width="24" xmlns="http://www.w3.org/2000/svg"><path d="m3 4v7h11.23l7.77-7h-3l-5.54 5h-8.46v-5zm0 9v7h2v-5h8.46l5.54 5h3l-7.77-7z"/></svg>

<?xml version="1.0" encoding="UTF-8"?><!DOCTYPE svg PUBLIC "-//W3C//DTD SVG 1.1//EN" "http://www.w3.org/Graphics/SVG/1.1/DTD/svg11.dtd"><svg xmlns="http://www.w3.org/2000/svg" xmlns:xlink="http://www.w3.org/1999/xlink" version="1.1" id="mdi-alphabet-aurebesh" width="24" height="24" viewBox="0 0 24 24"><path d="M3 4V11H14.23L22 4H19L13.46 9H5V4H3M3 13V20H5V15H13.46L19 20H22L14.23 13H3Z" /></svg>
